material/.icons/material/gate-nor.svg

<svg xmlns="http://www.w3.org/2000/svg" viewBox="0 0 24 24"><path d="M2 4c3 6 3 10 0 16h3c4.4 0 8-2.3 11.6-6.3.55.8 1.44 1.3 2.4 1.3a3 3 0 003-3 3 3 0 00-3-3c-.96 0-1.85.5-2.4 1.3C13 6.3 9.4 4 5 4H2m3 2c3.8 0 7 2.1 10.3 6C12 15.9 8.8 18 5 18c1.5-4 1.5-8 0-12m14 5c.5 0 1 .5 1 1s-.5 1-1 1a1 1 0 01-1-1c0-.5.5-1 1-1z"/></svg>

<?xml version="1.0" encoding="UTF-8"?><!DOCTYPE svg PUBLIC "-//W3C//DTD SVG 1.1//EN" "http://www.w3.org/Graphics/SVG/1.1/DTD/svg11.dtd"><svg xmlns="http://www.w3.org/2000/svg" xmlns:xlink="http://www.w3.org/1999/xlink" version="1.1" id="mdi-gate-nor" width="24" height="24" viewBox="0 0 24 24"><path d="M2,4C5,10 5,14 2,20H5C9.4,20 13,17.7 16.6,13.7C17.15,14.5 18.04,15 19,15A3,3 0 0,0 22,12A3,3 0 0,0 19,9C18.04,9 17.15,9.5 16.6,10.3C13,6.3 9.4,4 5,4H2M5,6C8.8,6 12,8.1 15.3,12C12,15.9 8.8,18 5,18C6.5,14 6.5,10 5,6M19,11C19.5,11 20,11.5 20,12C20,12.5 19.5,13 19,13A1,1 0 0,1 18,12C18,11.5 18.5,11 19,11Z" /></svg>
